X:1
T:Erstes Grün
T:  Robert Schumann
T:Justinus Kerner
T:Erstes Grün
T:für gem. Chor nach Op. 35,4
T:CPDL - Creative Commons Attribution Non Commercial 3.0
C:Robert Schumann
Z:Justinus Kerner
Z:CPDL - Creative Commons Attribution Non Commercial 3.0
%%score [ ( 1 2 ) 3 4 ]
L:1/8
Q:1/4=54
M:2/4
K:Bb
V:1 treble nm="Sopran\nAlt"
V:2 treble 
V:3 treble-8 nm="Tenor"
V:4 bass nm="Bass"
V:1
!mf!"^Innig" d | !>!d>B GA | B>!>(!G!>)! D!p!^F |!<(! GA!<)! B !>!d/c/ | B>!>(!A A2!>)! | %5
w: 1.   Du|jun- ges Grün, du|fri- sches Gras, wie|man- ches Herz durch *|dich ge- nas,|
!p! AA/!<(!A/ A!<)!B | A!>(!B A2!>)! |!<(! GG/!<)!d/ dc |!mf! _B2 A2 |!>(! d4!>)! | %10
w: das von des Win- ters|Schnee er- krankt,|o wie mein Herz nach|dir ver-|langt,|
!mf!!<(! GG/!<)!d/ d!f!c | B2!>(! A2 | !fermata!G2!>)! z |] %13
w: o wie mein Herz nach|dir ver-|langt!|
V:2
 d | d>B GA | B>G DD | D^F GG | G>^F F2 | ^FF/F/ F=E | ^F=E F2 | GG/G/ GA | G2 ^F2 | G4 | %10
 GG/G/ GA | G2 ^F2 | G2 x |] %13
V:3
!mf! d | !>!d>B GA | B>!>(!G!>)! D!p!A |!<(! Bc!<)! d!>!e | d>!>(!d d2!>)! |!p! dd/!<(!A/ ^F!<)!G | %6
w: 2. Schon|wächst du aus der|Er- de Nacht, wie|dir mein Aug’ ent-|ge- gen lacht!|Hier in des Wal- des|
 ^F!>(!G F2!>)! |!<(! dd/!<)!=f/ fe |!mf! d2 d2 |!>(! d4!>)! |!mf!!<(! dd/!<)!f/ f!f!e | %11
w: stil- lem Grund|drück ich dich, Grün, an|Herz und|Mund,|drück ich dich, Grün, an|
 d2!>(! c2 | !fermata!B2!>)! z |] %13
w: Herz und|Mund.|
V:4
!mf! D | !>!D>B, G,A, | B,>!>(!G,!>)! D,!p!C, |!<(! B,,A,,!<)! G,,!>!C, | D,>!>(!D, D,2!>)! | %5
w: 3.  Was|treibt mich von den|Men- schen fort? mein|Leid das hebt kein|Men- schen- wort;|
!p! D,D,/!<(!D,/ D,!<)!^C, | D,!>(!^C, D,2!>)! |!<(! B,,=B,,/!<)!B,,/ C,C, |!mf! D,2 C,2 | %9
w: nur jun- ges Grün an's|Herz ge- legt|macht, dass mein Herz nun|stil- ler|
!>(! _B,,4!>)! |!mf!!<(! B,,=B,,/!<)!B,,/ C,!f!C, | D,2!>(! D,2 | !fermata![G,,G,]2!>)! z |] %13
w: schlägt,|macht, dass mein Herz nun|stil- ler|schlägt.|

